!!!OTL: Der Fischer (3-18), S. 48
!!!id: K1155
**kern
*clefG2
*k[]
*C:
{8g
8e
8g
=1
4cc
4dd
8cc
8b
=2
4.f}
=3
{8f
8d
8f
=4
4b
4a
8.g
16f
=5
4.e}
=6
{8g
8e
8g
=7
8cc
8ee
8ee
8ee
8dd
8dd
=8
4.a}
=9
{8b
8dd
8cc
=10
8g
8g
4a
4b
=11
4.cc}
=12
{8g
8e
8g
=13
8cc
8ee
8ee
8ee
8dd
8dd
=14
4.a}
=15
{8b
8dd
8cc
=16
8g
8g
4a
4b
=17
4.cc}
==
*-
!!!minrhy: 16
!!!meters: 3/4 ]  ZZ[6
!!!cut: Der Fischer (3-18), S. 48
!!!reg: Luxemburg
!!!trd: KINTZELE, Guillaume: An der Ucht, Bd. 3 Luxemburg 1928
!!!rhy1: X_X_X_  X__X__X_X_  X__.
!!!rhy2: X_X_X_  X__X__X_.X  X__.
!!!key: K1155  16  C 3/4 ]  ZZ[6
!!!mod: HEPTATONIK IONISCH]  AMBITUS[9
!!!kad: 436+16+1
!!!akz: +14_73_+16_5+1_+16_5+1_
!!!fot: 'a__as"b__c__b__c__
!!!for: 'a__b__c__d__c__d__
!!!fok: 'Sd_Sd_Sa_~a_Sa_~a_
!! PHRAS[AUFTAKTIG]
!!!fkt: Liebeslied, Spottlied?
!!!bem: in der Quelle mit einer 2. Stimme versehen
!! KINTZELE
!! PR[38] 2K[5] 2G[12] 3K[5] 3G[0] 4A[2] 4Ü[0] 5A[0] 6K[0] 6G[0]
!! 7K[2] 7G[0] 8A[0] MEHR[0] SI[25] ABS[60] SR[17] SP[8]
!! ST[23] 2k[10] 2g[22] 3k[5] 3g[0] 4d[0] 4ü[0] 5d[0] 6k[0] 6g[0]
!! 7k[0] 7g[0] 8d[0] mehr[0] si[37] dm[-12] sr[32] sp[5]
!! 1F[8] 2F[73] 3F[11] 4F[0] LF[0] 2P[8] 3P[0] 4P[0] TRI[0] DF[4] AB[62]
!! TF[0] U3K[0] U3[0] U4[0] U4Ü[0] U5[0] U6K[0] U6[0] U7K[0] U7[0]
!! N1[0] N2K[0] N2[0] N3K[0] N3[2] N4[0] N4Ü[0] N5[10] N6K[0] N6[8]
!!!n7k: 0] N7[11] O1[20] O2K[0] O2[20] O3K[0] O3[16] HÖ[13
